themes/recalbox-multi-v3/lynx/data/game.svg

<svg xmlns="http://www.w3.org/2000/svg" width="208.74374" height="222.75999">
  <defs>
    <clipPath id="a">
      <path d="M0 178.208h166.995V0H0v178.208z"/>
    </clipPath>
  </defs>
  <g clip-path="url(#a)" transform="matrix(1.25,0,0,-1.25,0,222.76)">
    <path fill="#4f4c4d" d="M166.9951 177.7173V7.3693c0-4.053-3.316-7.369-7.369-7.369H7.3691c-4.053 0-7.369 3.316-7.369 7.369v170.348h166.995z"/>
    <path fill="#393536" d="M164.8496 24.3179v110.277c0 1.013-.828 1.842-1.842 1.842H3.9866c-1.013 0-1.842-.829-1.842-1.842V24.3179h162.705z"/>
    <path fill="#444141" d="M0 164.9268v6.035c0 1.04.851 1.891 1.891 1.891h163.213c1.041 0 1.89-.851 1.89-1.891v-6.035 13.282H0v-13.282z"/>
    <path fill="#706d6e" d="M2.145 7.532H164.85v16.786H2.145V7.532z"/>
    <path fill="#f57a14" d="M9.685 8.469h-2.96V24.38h2.96V8.469zm4.563 0h-2.96V24.38h2.96V8.469zm4.563 0h-2.96V24.38h2.96V8.469zm4.563 2.432h-2.96V24.38h2.96V10.901zm4.563 0h-2.96V24.38h2.96V10.901zm4.564 0H29.54V24.38h2.961V10.901zm4.563 0h-2.96V24.38h2.96V10.901zm4.563 0h-2.96V24.38h2.96V10.901zm4.563 0h-2.96V24.38h2.96V10.901zm4.564 0h-2.961V24.38h2.961V10.901zm4.562 0h-2.96V24.38h2.96V10.901zm4.564 0h-2.96V24.38h2.96V10.901zm4.563 0h-2.961V24.38h2.961V10.901zm4.563 0h-2.96V24.38h2.96V10.901zm4.563 0h-2.96V24.38h2.96V10.901zm4.564 0h-2.961V24.38h2.961V10.901zm4.562 0h-2.96V24.38h2.96V10.901zm4.564 0h-2.96V24.38h2.96V10.901zm4.563 0h-2.96V24.38h2.96V10.901zm4.563 0h-2.96V24.38h2.96V10.901zm4.563 0h-2.96V24.38h2.96V10.901zm4.564 0h-2.96V24.38h2.96V10.901zm4.563 0h-2.961V24.38h2.961V10.901zm4.563 0h-2.96V24.38h2.96V10.901zm4.563 0h-2.96V24.38h2.96V10.901zm4.564 0h-2.96V24.38h2.96V10.901zm4.563 0h-2.961V24.38h2.961V10.901zm4.563 0h-2.96V24.38h2.96V10.901zm4.563 0h-2.96V24.38h2.96V10.901zm4.564 0h-2.961V24.38h2.961V10.901zm4.562 0h-2.96V24.38h2.96V10.901zm4.564 0h-2.96V24.38h2.96V10.901zm4.563 0h-2.961V24.38h2.961V10.901zm4.563-2.432h-2.96V24.38h2.96V8.469z"/>
  </g>
  <path d="M206.06484293 82.72367608c0 3.94627728-3.22877232 7.1750496-7.1750496 7.1750496H9.8527078c-3.94627728 0-7.1750496-3.22877232-7.1750496-7.1750496V59.5805536c0-3.94627728 3.22877232-7.1750496 7.1750496-7.1750496h189.03708553c3.94627728 0 7.1750496 3.22877232 7.1750496 7.1750496v23.14312248z"/>
  <path fill="red" d="M157.87828608 77.14435752l-17.39303774 6.30722735h17.50389225l6.6562935-3.67470166m25.16361645-6.88768884h-10.78840458l-7.58546244-3.4870741-4.67669732 1.90282315-25.12307742-12.36261045h20.66270782"/>
  <path fill="#fc0" d="M180.11771107 65.3317146l17.39519025-6.30435732h-17.50317475l-6.65593476 3.67183163m-25.16433394 6.88768888h10.78804583l7.58617993 3.48743286 4.67633858-1.9031819 25.12307743 12.36261045h-20.6623491M11.22924107 58.77300212h13.69537556v16.7358039H11.22924107zm0 18.7846386H46.3238426v5.12334417H11.22924106zm22.2544926-18.78463896H49.7495711l11.12742567 9.39106367-8.0432306 5.90111954m1.194287 8.61615832h12.84011v-7.6862719L91.6931173 58.77300178H79.7082732L54.8854716 74.9950714h-.85741842m39.37774846-13.66201194l13.69537592 8.53866778V82.6813433H93.40580164m36.8076457 0h7.70385075V58.7704905h-6.6767424V75.585578l-24.99464407-16.81257623h-11.1295782"/>
  <path fill="#d40000" d="M119.55047 184.72597zm0-2.03707zm0-2.00511zm0 1.00256zm0 4.04218zm0-2.03709zm0-4.01018z"/>
</svg>

<?xml version="1.0" encoding="UTF-8" standalone="no"?>
<svg
   xmlns:dc="http://purl.org/dc/elements/1.1/"
   xmlns:cc="http://creativecommons.org/ns#"
   xmlns:rdf="http://www.w3.org/1999/02/22-rdf-syntax-ns#"
   xmlns:svg="http://www.w3.org/2000/svg"
   xmlns="http://www.w3.org/2000/svg"
   xmlns:sodipodi="http://sodipodi.sourceforge.net/DTD/sodipodi-0.dtd"
   xmlns:inkscape="http://www.inkscape.org/namespaces/inkscape"
   viewBox="0 0 208.74374 222.75999"
   height="222.75999"
   width="208.74374"
   xml:space="preserve"
   version="1.1"
   id="svg2"
   inkscape:version="0.91 r13725"
   sodipodi:docname="game.svg"><sodipodi:namedview
     pagecolor="#ffffff"
     bordercolor="#666666"
     borderopacity="1"
     objecttolerance="10"
     gridtolerance="10"
     guidetolerance="10"
     inkscape:pageopacity="0"
     inkscape:pageshadow="2"
     inkscape:window-width="1920"
     inkscape:window-height="1027"
     id="namedview51"
     showgrid="false"
     inkscape:zoom="2.9965381"
     inkscape:cx="60.120156"
     inkscape:cy="111.38"
     inkscape:window-x="-8"
     inkscape:window-y="-8"
     inkscape:window-maximized="1"
     inkscape:current-layer="svg2" /><metadata
     id="metadata8"><rdf:RDF><cc:Work
         rdf:about=""><dc:format>image/svg+xml</dc:format><dc:type
           rdf:resource="http://purl.org/dc/dcmitype/StillImage" /><dc:title /></cc:Work></rdf:RDF></metadata><defs
     id="defs6"><clipPath
       id="clipPath16"
       clipPathUnits="userSpaceOnUse"><path
         id="path18"
         d="m 0,178.208 166.995,0 L 166.995,0 0,0 0,178.208 Z" /></clipPath><pattern
       y="0"
       x="0"
       height="6"
       width="6"
       patternUnits="userSpaceOnUse"
       id="EMFhbasepattern" /></defs><g
     transform="matrix(1.25,0,0,-1.25,0,222.76)"
     id="g10"><g
       id="g12"><g
         clip-path="url(#clipPath16)"
         id="g14"><g
           transform="translate(166.9951,177.7173)"
           id="g20"><path
             id="path22"
             style="fill:#4f4c4d;fill-opacity:1;fill-rule:nonzero;stroke:none"
             d="m 0,0 0,-170.348 c 0,-4.053 -3.316,-7.369 -7.369,-7.369 l -152.257,0 c -4.053,0 -7.369,3.316 -7.369,7.369 L -166.995,0 0,0 Z" /></g><g
           transform="translate(164.8496,24.3179)"
           id="g24"><path
             id="path26"
             style="fill:#393536;fill-opacity:1;fill-rule:nonzero;stroke:none"
             d="m 0,0 0,110.277 c 0,1.013 -0.828,1.842 -1.842,1.842 l -159.021,0 c -1.013,0 -1.842,-0.829 -1.842,-1.842 L -162.705,0 0,0 Z" /></g><g
           transform="translate(0,164.9268)"
           id="g28"><path
             id="path30"
             style="fill:#444141;fill-opacity:1;fill-rule:nonzero;stroke:none"
             d="m 0,0 0,6.035 c 0,1.04 0.851,1.891 1.891,1.891 l 163.213,0 c 1.041,0 1.89,-0.851 1.89,-1.891 l 0,-6.035 0,13.282 L 0,13.282 0,0 Z" /></g><path
           id="path32"
           style="fill:#706d6e;fill-opacity:1;fill-rule:nonzero;stroke:none"
           d="m 2.145,7.532 162.705,0 0,16.786 -162.705,0 0,-16.786 z" /><path
           id="path34"
           style="fill:#f57a14;fill-opacity:1;fill-rule:nonzero;stroke:none"
           d="m 9.685,8.469 -2.96,0 0,15.911 2.96,0 0,-15.911 z" /><path
           id="path36"
           style="fill:#f57a14;fill-opacity:1;fill-rule:nonzero;stroke:none"
           d="m 14.248,8.469 -2.96,0 0,15.911 2.96,0 0,-15.911 z" /><path
           id="path38"
           style="fill:#f57a14;fill-opacity:1;fill-rule:nonzero;stroke:none"
           d="m 18.811,8.469 -2.96,0 0,15.911 2.96,0 0,-15.911 z" /><path
           id="path40"
           style="fill:#f57a14;fill-opacity:1;fill-rule:nonzero;stroke:none"
           d="m 23.374,10.901 -2.96,0 0,13.479 2.96,0 0,-13.479 z" /><path
           id="path42"
           style="fill:#f57a14;fill-opacity:1;fill-rule:nonzero;stroke:none"
           d="m 27.937,10.901 -2.96,0 0,13.479 2.96,0 0,-13.479 z" /><path
           id="path44"
           style="fill:#f57a14;fill-opacity:1;fill-rule:nonzero;stroke:none"
           d="m 32.501,10.901 -2.961,0 0,13.479 2.961,0 0,-13.479 z" /><path
           id="path46"
           style="fill:#f57a14;fill-opacity:1;fill-rule:nonzero;stroke:none"
           d="m 37.064,10.901 -2.96,0 0,13.479 2.96,0 0,-13.479 z" /><path
           id="path48"
           style="fill:#f57a14;fill-opacity:1;fill-rule:nonzero;stroke:none"
           d="m 41.627,10.901 -2.96,0 0,13.479 2.96,0 0,-13.479 z" /><path
           id="path50"
           style="fill:#f57a14;fill-opacity:1;fill-rule:nonzero;stroke:none"
           d="m 46.19,10.901 -2.96,0 0,13.479 2.96,0 0,-13.479 z" /><path
           id="path52"
           style="fill:#f57a14;fill-opacity:1;fill-rule:nonzero;stroke:none"
           d="m 50.754,10.901 -2.961,0 0,13.479 2.961,0 0,-13.479 z" /><path
           id="path54"
           style="fill:#f57a14;fill-opacity:1;fill-rule:nonzero;stroke:none"
           d="m 55.316,10.901 -2.96,0 0,13.479 2.96,0 0,-13.479 z" /><path
           id="path56"
           style="fill:#f57a14;fill-opacity:1;fill-rule:nonzero;stroke:none"
           d="m 59.88,10.901 -2.96,0 0,13.479 2.96,0 0,-13.479 z" /><path
           id="path58"
           style="fill:#f57a14;fill-opacity:1;fill-rule:nonzero;stroke:none"
           d="m 64.443,10.901 -2.961,0 0,13.479 2.961,0 0,-13.479 z" /><path
           id="path60"
           style="fill:#f57a14;fill-opacity:1;fill-rule:nonzero;stroke:none"
           d="m 69.006,10.901 -2.96,0 0,13.479 2.96,0 0,-13.479 z" /><path
           id="path62"
           style="fill:#f57a14;fill-opacity:1;fill-rule:nonzero;stroke:none"
           d="m 73.569,10.901 -2.96,0 0,13.479 2.96,0 0,-13.479 z" /><path
           id="path64"
           style="fill:#f57a14;fill-opacity:1;fill-rule:nonzero;stroke:none"
           d="m 78.133,10.901 -2.961,0 0,13.479 2.961,0 0,-13.479 z" /><path
           id="path66"
           style="fill:#f57a14;fill-opacity:1;fill-rule:nonzero;stroke:none"
           d="m 82.695,10.901 -2.96,0 0,13.479 2.96,0 0,-13.479 z" /><path
           id="path68"
           style="fill:#f57a14;fill-opacity:1;fill-rule:nonzero;stroke:none"
           d="m 87.259,10.901 -2.96,0 0,13.479 2.96,0 0,-13.479 z" /><path
           id="path70"
           style="fill:#f57a14;fill-opacity:1;fill-rule:nonzero;stroke:none"
           d="m 91.822,10.901 -2.96,0 0,13.479 2.96,0 0,-13.479 z" /><path
           id="path72"
           style="fill:#f57a14;fill-opacity:1;fill-rule:nonzero;stroke:none"
           d="m 96.385,10.901 -2.96,0 0,13.479 2.96,0 0,-13.479 z" /><path
           id="path74"
           style="fill:#f57a14;fill-opacity:1;fill-rule:nonzero;stroke:none"
           d="m 100.948,10.901 -2.96,0 0,13.479 2.96,0 0,-13.479 z" /><path
           id="path76"
           style="fill:#f57a14;fill-opacity:1;fill-rule:nonzero;stroke:none"
           d="m 105.512,10.901 -2.96,0 0,13.479 2.96,0 0,-13.479 z" /><path
           id="path78"
           style="fill:#f57a14;fill-opacity:1;fill-rule:nonzero;stroke:none"
           d="m 110.075,10.901 -2.961,0 0,13.479 2.961,0 0,-13.479 z" /><path
           id="path80"
           style="fill:#f57a14;fill-opacity:1;fill-rule:nonzero;stroke:none"
           d="m 114.638,10.901 -2.96,0 0,13.479 2.96,0 0,-13.479 z" /><path
           id="path82"
           style="fill:#f57a14;fill-opacity:1;fill-rule:nonzero;stroke:none"
           d="m 119.201,10.901 -2.96,0 0,13.479 2.96,0 0,-13.479 z" /><path
           id="path84"
           style="fill:#f57a14;fill-opacity:1;fill-rule:nonzero;stroke:none"
           d="m 123.765,10.901 -2.96,0 0,13.479 2.96,0 0,-13.479 z" /><path
           id="path86"
           style="fill:#f57a14;fill-opacity:1;fill-rule:nonzero;stroke:none"
           d="m 128.328,10.901 -2.961,0 0,13.479 2.961,0 0,-13.479 z" /><path
           id="path88"
           style="fill:#f57a14;fill-opacity:1;fill-rule:nonzero;stroke:none"
           d="m 132.891,10.901 -2.96,0 0,13.479 2.96,0 0,-13.479 z" /><path
           id="path90"
           style="fill:#f57a14;fill-opacity:1;fill-rule:nonzero;stroke:none"
           d="m 137.454,10.901 -2.96,0 0,13.479 2.96,0 0,-13.479 z" /><path
           id="path92"
           style="fill:#f57a14;fill-opacity:1;fill-rule:nonzero;stroke:none"
           d="m 142.018,10.901 -2.961,0 0,13.479 2.961,0 0,-13.479 z" /><path
           id="path94"
           style="fill:#f57a14;fill-opacity:1;fill-rule:nonzero;stroke:none"
           d="m 146.58,10.901 -2.96,0 0,13.479 2.96,0 0,-13.479 z" /><path
           id="path96"
           style="fill:#f57a14;fill-opacity:1;fill-rule:nonzero;stroke:none"
           d="m 151.144,10.901 -2.96,0 0,13.479 2.96,0 0,-13.479 z" /><path
           id="path98"
           style="fill:#f57a14;fill-opacity:1;fill-rule:nonzero;stroke:none"
           d="m 155.707,10.901 -2.961,0 0,13.479 2.961,0 0,-13.479 z" /><path
           id="path100"
           style="fill:#f57a14;fill-opacity:1;fill-rule:nonzero;stroke:none"
           d="m 160.27,8.469 -2.96,0 0,15.911 2.96,0 0,-15.911 z" /></g></g></g><g
     id="Layer_2"
     transform="matrix(0.35875248,0,0,0.35875248,2.6776582,52.405504)"><g
       id="g5"><path
         inkscape:connector-curvature="0"
         d="m 566.929,84.51 c 0,11 -9,20 -20,20 L 20,104.51 c -11,0 -20,-9 -20,-20 L 0,20 C 0,9 9,0 20,0 l 526.929,0 c 11,0 20,9 20,20 l 0,64.51 z"
         id="path7" /></g></g><g
     id="Layer_1"
     transform="matrix(0.35875248,0,0,0.35875248,2.6776582,52.405504)"><g
       id="g10-5"><polygon
         style="fill:#ff0000"
         points="432.612,68.958 384.13,86.539 432.921,86.539 451.475,76.296 "
         id="polygon12" /><polygon
         style="fill:#ff0000"
         points="521.617,57.097 491.545,57.097 470.401,47.377 457.365,52.681 387.336,18.221 444.932,18.221 "
         id="polygon14" /><polygon
         style="fill:#ffcc00"
         points="494.603,36.031 543.091,18.458 494.302,18.458 475.749,28.693 "
         id="polygon16" /><polygon
         style="fill:#ffcc00"
         points="405.605,47.892 435.676,47.892 456.822,57.613 469.857,52.308 539.886,86.768 482.291,86.768 "
         id="polygon18" /><rect
         style="fill:#ffcc00"
         x="23.837"
         y="17.749001"
         width="38.174999"
         height="46.650002"
         id="rect20" /><rect
         style="fill:#ffcc00"
         x="23.837"
         y="70.110001"
         width="97.823997"
         height="14.281"
         id="rect22" /><polygon
         style="fill:#ffcc00"
         points="85.87,17.749 131.21,17.749 162.227,43.926 139.807,60.375 "
         id="polygon24" /><polygon
         style="fill:#ffcc00"
         points="143.136,84.392 178.927,84.392 178.927,62.967 248.125,17.749 214.718,17.749 145.526,62.967 143.136,62.967 "
         id="polygon26" /><polygon
         style="fill:#ffcc00"
         points="252.899,24.885 291.074,48.686 291.074,84.392 252.899,84.392 "
         id="polygon28" /><polygon
         style="fill:#ffcc00"
         points="355.498,84.392 376.972,84.392 376.972,17.742 358.361,17.742 358.361,64.613 288.69,17.749 257.667,17.749 "
         id="polygon30" /></g></g><path
     inkscape:connector-curvature="0"
     id="path4252"
     d="m 119.55047,184.72597 0,0 0,0 z"
     style="fill:#d40000;fill-opacity:1;fill-rule:nonzero;stroke:none" /><path
     inkscape:connector-curvature="0"
     id="path4254"
     d="m 119.55047,182.6889 0,0 0,0 z"
     style="fill:#d40000;fill-opacity:1;fill-rule:nonzero;stroke:none" /><path
     inkscape:connector-curvature="0"
     id="path4256"
     d="m 119.55047,180.68379 0,0 0,0 z"
     style="fill:#d40000;fill-opacity:1;fill-rule:nonzero;stroke:none" /><path
     inkscape:connector-curvature="0"
     id="path4258"
     d="m 119.55047,181.68635 0,0 0,0 z"
     style="fill:#d40000;fill-opacity:1;fill-rule:nonzero;stroke:none" /><path
     inkscape:connector-curvature="0"
     id="path4260"
     d="m 119.55047,185.72853 0,0 0,0 z"
     style="fill:#d40000;fill-opacity:1;fill-rule:nonzero;stroke:none" /><path
     inkscape:connector-curvature="0"
     id="path4262"
     d="m 119.55047,183.69144 0,0 0,0 z"
     style="fill:#d40000;fill-opacity:1;fill-rule:nonzero;stroke:none" /><path
     inkscape:connector-curvature="0"
     id="path4264"
     d="m 119.55047,179.68126 0,0 0,0 z"
     style="fill:#d40000;fill-opacity:1;fill-rule:nonzero;stroke:none" /></svg>
